X: 305
T:Summer Lightning
% Nottingham Music Database
S:John Goodacre 1984, via Phil Rowe
M:6/8
K:D
"A7"F2E F2G|"D"A2G F3|"A7"F2E F2G|"Em"E3 -"A7"E3|"A7"F2E F2G|"D"A2G F3|\
"A7"EGE C2E|"D"D3 -D3::
"A7"GcG cGc|"D"ABc dAF|"A7"GcG cGc|"A7"ABc "D"d3|
"A7"GcG cGc|"D"ABc dAF|"Em"BGE "D"AFD| [1"A7"GEC "D"F3:|[2"A7"GEc "D"d3||<end>
<start>
